static/img/kroki/2c6ac360491062922451e7a307e4c61e.svg

<?xml version="1.0" encoding="us-ascii" standalone="no"?><svg xmlns="http://www.w3.org/2000/svg" xmlns:xlink="http://www.w3.org/1999/xlink" contentStyleType="text/css" height="1114px" preserveAspectRatio="none" style="width:441px;height:1114px;" version="1.1" viewBox="0 0 441 1114" width="441px" zoomAndPan="magnify"><defs/><g><!--class azure_storage_table--><g id="elem_azure_storage_table"><rect codeLine="23" fill="#3D176E" height="100.3828" id="azure_storage_table" rx="2.5" ry="2.5" style="stroke:#000D19;stroke-width:0.5;" width="427" x="7" y="660.14"/><ellipse cx="127.25" cy="680.0345" fill="#ADD1B2" rx="11" ry="11" style="stroke:#181818;stroke-width:1.0;"/><path d="M130.2188,685.6752 Q129.6406,685.972 129,686.1127 Q128.3594,686.2689 127.6563,686.2689 Q125.1563,686.2689 123.8281,684.6283 Q122.5156,682.972 122.5156,679.847 Q122.5156,676.722 123.8281,675.0658 Q125.1563,673.4095 127.6563,673.4095 Q128.3594,673.4095 129,673.5658 Q129.6563,673.722 130.2188,674.0189 L130.2188,676.7377 Q129.5938,676.1595 129,675.8939 Q128.4063,675.6127 127.7813,675.6127 Q126.4375,675.6127 125.75,676.6908 Q125.0625,677.7533 125.0625,679.847 Q125.0625,681.9408 125.75,683.0189 Q126.4375,684.0814 127.7813,684.0814 Q128.4063,684.0814 129,683.8158 Q129.5938,683.5345 130.2188,682.9564 L130.2188,685.6752 Z " fill="#000000"/><text fill="#D9B8FF" font-family="Helvetica" font-size="17" lengthAdjust="spacing" textLength="168" x="152.75" y="685.9198">azure_storage_table</text><line style="stroke:#000D19;stroke-width:0.5;" x1="8" x2="433" y1="699.9291" y2="699.9291"/><text fill="#D9B8FF" font-family="sans-serif" font-size="14" font-weight="bold" lengthAdjust="spacing" textLength="89" x="18" y="721.9242">table_name</text><text fill="#D9B8FF" font-family="sans-serif" font-size="14" lengthAdjust="spacing" textLength="48" x="107" y="721.9242">: string</text><text fill="#D9B8FF" font-family="sans-serif" font-size="14" font-weight="bold" lengthAdjust="spacing" textLength="186" x="18" y="748.2211">table_signed_identifiers</text><text fill="#D9B8FF" font-family="sans-serif" font-size="14" lengthAdjust="spacing" textLength="219" x="204" y="748.2211">: azure_table_signed_identifier[]</text></g><!--class azure_table_access_policy--><g id="elem_azure_table_access_policy"><rect codeLine="27" fill="#3D176E" height="126.6797" id="azure_table_access_policy" rx="2.5" ry="2.5" style="stroke:#000D19;stroke-width:0.5;" width="257" x="92" y="980.91"/><ellipse cx="107" cy="1000.8045" fill="#ADD1B2" rx="11" ry="11" style="stroke:#181818;stroke-width:1.0;"/><path d="M109.9688,1006.4452 Q109.3906,1006.742 108.75,1006.8827 Q108.1094,1007.0389 107.4063,1007.0389 Q104.9063,1007.0389 103.5781,1005.3983 Q102.2656,1003.742 102.2656,1000.617 Q102.2656,997.492 103.5781,995.8358 Q104.9063,994.1795 107.4063,994.1795 Q108.1094,994.1795 108.75,994.3358 Q109.4063,994.492 109.9688,994.7889 L109.9688,997.5077 Q109.3438,996.9295 108.75,996.6639 Q108.1563,996.3827 107.5313,996.3827 Q106.1875,996.3827 105.5,997.4608 Q104.8125,998.5233 104.8125,1000.617 Q104.8125,1002.7108 105.5,1003.7889 Q106.1875,1004.8514 107.5313,1004.8514 Q108.1563,1004.8514 108.75,1004.5858 Q109.3438,1004.3045 109.9688,1003.7264 L109.9688,1006.4452 Z " fill="#000000"/><text fill="#D9B8FF" font-family="Helvetica" font-size="17" lengthAdjust="spacing" textLength="215" x="126" y="1006.6898">azure_table_access_policy</text><line style="stroke:#000D19;stroke-width:0.5;" x1="93" x2="348" y1="1020.6991" y2="1020.6991"/><text fill="#D9B8FF" font-family="sans-serif" font-size="14" font-weight="bold" lengthAdjust="spacing" textLength="90" x="103" y="1042.6942">expiry_time</text><text fill="#D9B8FF" font-family="sans-serif" font-size="14" lengthAdjust="spacing" textLength="70" x="193" y="1042.6942">: datetime</text><text fill="#D9B8FF" font-family="sans-serif" font-size="14" font-weight="bold" lengthAdjust="spacing" textLength="87" x="103" y="1068.9911">permission</text><text fill="#D9B8FF" font-family="sans-serif" font-size="14" lengthAdjust="spacing" textLength="48" x="190" y="1068.9911">: string</text><text fill="#D9B8FF" font-family="sans-serif" font-size="14" font-weight="bold" lengthAdjust="spacing" textLength="78" x="103" y="1095.2879">start_time</text><text fill="#D9B8FF" font-family="sans-serif" font-size="14" lengthAdjust="spacing" textLength="70" x="181" y="1095.2879">: datetime</text></g><!--class azure_table_signed_identifier--><g id="elem_azure_table_signed_identifier"><rect codeLine="32" fill="#3D176E" height="100.3828" id="azure_table_signed_identifier" rx="2.5" ry="2.5" style="stroke:#000D19;stroke-width:0.5;" width="321" x="60" y="820.53"/><ellipse cx="90.3" cy="840.4245" fill="#ADD1B2" rx="11" ry="11" style="stroke:#181818;stroke-width:1.0;"/><path d="M93.2688,846.0652 Q92.6906,846.362 92.05,846.5027 Q91.4094,846.6589 90.7063,846.6589 Q88.2063,846.6589 86.8781,845.0183 Q85.5656,843.362 85.5656,840.237 Q85.5656,837.112 86.8781,835.4558 Q88.2063,833.7995 90.7063,833.7995 Q91.4094,833.7995 92.05,833.9558 Q92.7063,834.112 93.2688,834.4089 L93.2688,837.1277 Q92.6438,836.5495 92.05,836.2839 Q91.4563,836.0027 90.8313,836.0027 Q89.4875,836.0027 88.8,837.0808 Q88.1125,838.1433 88.1125,840.237 Q88.1125,842.3308 88.8,843.4089 Q89.4875,844.4714 90.8313,844.4714 Q91.4563,844.4714 92.05,844.2058 Q92.6438,843.9245 93.2688,843.3464 L93.2688,846.0652 Z " fill="#000000"/><text fill="#D9B8FF" font-family="Helvetica" font-size="17" lengthAdjust="spacing" textLength="245" x="112.7" y="846.3098">azure_table_signed_identifier</text><line style="stroke:#000D19;stroke-width:0.5;" x1="61" x2="380" y1="860.3191" y2="860.3191"/><text fill="#D9B8FF" font-family="sans-serif" font-size="14" font-weight="bold" lengthAdjust="spacing" textLength="108" x="71" y="882.3142">access_policy</text><text fill="#D9B8FF" font-family="sans-serif" font-size="14" lengthAdjust="spacing" textLength="191" x="179" y="882.3142">: azure_table_access_policy</text><text fill="#D9B8FF" font-family="sans-serif" font-size="14" font-weight="bold" lengthAdjust="spacing" textLength="14" x="71" y="908.6111">id</text><text fill="#D9B8FF" font-family="sans-serif" font-size="14" lengthAdjust="spacing" textLength="48" x="85" y="908.6111">: string</text></g><!--class microsoft_resource--><g id="elem_microsoft_resource"><rect codeLine="36" fill="#3D176E" height="100.3828" id="microsoft_resource" rx="2.5" ry="2.5" style="stroke:#000D19;stroke-width:0.5;" width="214" x="113.5" y="438.76"/><ellipse cx="134.8" cy="458.6545" fill="#ADD1B2" rx="11" ry="11" style="stroke:#181818;stroke-width:1.0;"/><path d="M137.7688,464.2952 Q137.1906,464.592 136.55,464.7327 Q135.9094,464.8889 135.2063,464.8889 Q132.7063,464.8889 131.3781,463.2483 Q130.0656,461.592 130.0656,458.467 Q130.0656,455.342 131.3781,453.6858 Q132.7063,452.0295 135.2063,452.0295 Q135.9094,452.0295 136.55,452.1858 Q137.2063,452.342 137.7688,452.6389 L137.7688,455.3577 Q137.1438,454.7795 136.55,454.5139 Q135.9563,454.2327 135.3313,454.2327 Q133.9875,454.2327 133.3,455.3108 Q132.6125,456.3733 132.6125,458.467 Q132.6125,460.5608 133.3,461.6389 Q133.9875,462.7014 135.3313,462.7014 Q135.9563,462.7014 136.55,462.4358 Q137.1438,462.1545 137.7688,461.5764 L137.7688,464.2952 Z " fill="#000000"/><text fill="#D9B8FF" font-family="Helvetica" font-size="17" lengthAdjust="spacing" textLength="158" x="155.2" y="464.5398">microsoft_resource</text><line style="stroke:#000D19;stroke-width:0.5;" x1="114.5" x2="326.5" y1="478.5491" y2="478.5491"/><text fill="#D9B8FF" font-family="sans-serif" font-size="14" font-weight="bold" lengthAdjust="spacing" textLength="35" x="124.5" y="500.5442">etag</text><text fill="#D9B8FF" font-family="sans-serif" font-size="14" lengthAdjust="spacing" textLength="48" x="159.5" y="500.5442">: string</text><text fill="#D9B8FF" font-family="sans-serif" font-size="14" font-weight="bold" lengthAdjust="spacing" textLength="144" x="124.5" y="526.8411">provisioning_state</text><text fill="#D9B8FF" font-family="sans-serif" font-size="14" lengthAdjust="spacing" textLength="48" x="268.5" y="526.8411">: string</text></g><!--class resource--><g id="elem_resource"><rect codeLine="40" fill="#3D176E" height="310.7578" id="resource" rx="2.5" ry="2.5" style="stroke:#000D19;stroke-width:0.5;" width="227" x="107" y="7"/><ellipse cx="175.75" cy="26.8945" fill="#ADD1B2" rx="11" ry="11" style="stroke:#181818;stroke-width:1.0;"/><path d="M178.7188,32.5352 Q178.1406,32.832 177.5,32.9727 Q176.8594,33.1289 176.1563,33.1289 Q173.6563,33.1289 172.3281,31.4883 Q171.0156,29.832 171.0156,26.707 Q171.0156,23.582 172.3281,21.9258 Q173.6563,20.2695 176.1563,20.2695 Q176.8594,20.2695 177.5,20.4258 Q178.1563,20.582 178.7188,20.8789 L178.7188,23.5977 Q178.0938,23.0195 177.5,22.7539 Q176.9063,22.4727 176.2813,22.4727 Q174.9375,22.4727 174.25,23.5508 Q173.5625,24.6133 173.5625,26.707 Q173.5625,28.8008 174.25,29.8789 Q174.9375,30.9414 176.2813,30.9414 Q176.9063,30.9414 177.5,30.6758 Q178.0938,30.3945 178.7188,29.8164 L178.7188,32.5352 Z " fill="#000000"/><text fill="#D9B8FF" font-family="Helvetica" font-size="17" lengthAdjust="spacing" textLength="71" x="201.25" y="32.7798">resource</text><line style="stroke:#000D19;stroke-width:0.5;" x1="108" x2="333" y1="46.7891" y2="46.7891"/><text fill="#D9B8FF" font-family="sans-serif" font-size="14" font-weight="bold" lengthAdjust="spacing" textLength="29" x="118" y="68.7842">age</text><text fill="#D9B8FF" font-family="sans-serif" font-size="14" lengthAdjust="spacing" textLength="66" x="147" y="68.7842">: duration</text><text fill="#D9B8FF" font-family="sans-serif" font-size="14" font-weight="bold" lengthAdjust="spacing" textLength="43" x="118" y="95.0811">atime</text><text fill="#D9B8FF" font-family="sans-serif" font-size="14" lengthAdjust="spacing" textLength="70" x="161" y="95.0811">: datetime</text><text fill="#D9B8FF" font-family="sans-serif" font-size="14" font-weight="bold" lengthAdjust="spacing" textLength="43" x="118" y="121.3779">ctime</text><text fill="#D9B8FF" font-family="sans-serif" font-size="14" lengthAdjust="spacing" textLength="70" x="161" y="121.3779">: datetime</text><text fill="#D9B8FF" font-family="sans-serif" font-size="14" font-weight="bold" lengthAdjust="spacing" textLength="14" x="118" y="147.6748">id</text><text fill="#D9B8FF" font-family="sans-serif" font-size="14" lengthAdjust="spacing" textLength="48" x="132" y="147.6748">: string</text><text fill="#D9B8FF" font-family="sans-serif" font-size="14" font-weight="bold" lengthAdjust="spacing" textLength="33" x="118" y="173.9717">kind</text><text fill="#D9B8FF" font-family="sans-serif" font-size="14" lengthAdjust="spacing" textLength="48" x="151" y="173.9717">: string</text><text fill="#D9B8FF" font-family="sans-serif" font-size="14" font-weight="bold" lengthAdjust="spacing" textLength="90" x="118" y="200.2686">last_access</text><text fill="#D9B8FF" font-family="sans-serif" font-size="14" lengthAdjust="spacing" textLength="66" x="208" y="200.2686">: duration</text><text fill="#D9B8FF" font-family="sans-serif" font-size="14" font-weight="bold" lengthAdjust="spacing" textLength="90" x="118" y="226.5654">last_update</text><text fill="#D9B8FF" font-family="sans-serif" font-size="14" lengthAdjust="spacing" textLength="66" x="208" y="226.5654">: duration</text><text fill="#D9B8FF" font-family="sans-serif" font-size="14" font-weight="bold" lengthAdjust="spacing" textLength="48" x="118" y="252.8623">mtime</text><text fill="#D9B8FF" font-family="sans-serif" font-size="14" lengthAdjust="spacing" textLength="70" x="166" y="252.8623">: datetime</text><text fill="#D9B8FF" font-family="sans-serif" font-size="14" font-weight="bold" lengthAdjust="spacing" textLength="43" x="118" y="279.1592">name</text><text fill="#D9B8FF" font-family="sans-serif" font-size="14" lengthAdjust="spacing" textLength="48" x="161" y="279.1592">: string</text><text fill="#D9B8FF" font-family="sans-serif" font-size="14" font-weight="bold" lengthAdjust="spacing" textLength="34" x="118" y="305.4561">tags</text><text fill="#D9B8FF" font-family="sans-serif" font-size="14" lengthAdjust="spacing" textLength="171" x="152" y="305.4561">: dictionary[string, string]</text></g><!--link azure_storage_table to azure_table_signed_identifier--><g id="link_azure_storage_table_azure_table_signed_identifier"><path codeLine="52" d="M220.5,761.01 C220.5,779.88 220.5,795.36 220.5,814.22 " fill="none" id="azure_storage_table-to-azure_table_signed_identifier" style="stroke:#FFAF37;stroke-width:2.0;"/><polygon fill="#FFAF37" points="220.5,820.22,224.5,811.22,220.5,815.22,216.5,811.22,220.5,820.22" style="stroke:#FFAF37;stroke-width:2.0;"/></g><!--reverse link microsoft_resource to azure_storage_table--><g id="link_microsoft_resource_azure_storage_table"><path codeLine="53" d="M220.5,557.46 C220.5,593.48 220.5,624.03 220.5,660.01 " fill="none" id="microsoft_resource-backto-azure_storage_table" style="stroke:#FFAF37;stroke-width:2.0;"/><polygon fill="none" points="220.5,539.46,214.5,557.46,226.5,557.46,220.5,539.46" style="stroke:#FFAF37;stroke-width:2.0;"/></g><!--link azure_table_signed_identifier to azure_table_access_policy--><g id="link_azure_table_signed_identifier_azure_table_access_policy"><path codeLine="54" d="M220.5,921.33 C220.5,939.84 220.5,955.09 220.5,974.61 " fill="none" id="azure_table_signed_identifier-to-azure_table_access_policy" style="stroke:#FFAF37;stroke-width:2.0;"/><polygon fill="#FFAF37" points="220.5,980.61,224.5,971.61,220.5,975.61,216.5,971.61,220.5,980.61" style="stroke:#FFAF37;stroke-width:2.0;"/></g><!--reverse link resource to microsoft_resource--><g id="link_resource_microsoft_resource"><path codeLine="55" d="M220.5,336.06 C220.5,379.66 220.5,405.99 220.5,438.43 " fill="none" id="resource-backto-microsoft_resource" style="stroke:#FFAF37;stroke-width:2.0;"/><polygon fill="none" points="220.5,318.06,214.5,336.06,226.5,336.06,220.5,318.06" style="stroke:#FFAF37;stroke-width:2.0;"/></g><!--SRC=[XP9DQzj048Rl-XKBkOaQx8RMSIc5n13QIoXDRw68yUv8NYpjYjbHKgNjV-zASe9MMZktrSoZUT_vs6k50gkQMr5XjKDoYJjeKmD19Qw9xDFMbfR4HPv3VhcU9c-juJU1EwXGVCNo4LbBc18_zreU33edtezIDo0F1Td6gA4y4nZdKsXuH6rBSEwQcVIkOHoPKPlTLPvFoMdHYqkrMd_46MP98HsHvNAfLfifygRKsRvVYNlzZ68r7jgTPPpPd4dqr5cN7J4oEMlq9N_IutTGIfj2V1Z5VWoUo205yVizAFlKqJcKRYpZ60ajjpLkPrtXvahbwoZyxHISo6vq0fuRmion9IWmOzYLAFuaQTg_CkDxIjDFlXvvJwzXfmk3AlC7RrZdsfzw1msbJX0Flv9_WUJ0WPJ-NhFQbbgslJ3-hZMr6Uj1MG5Zz_QP6gdIpcbh0akEWNZEnzHchdh5mCEqaI3fOQr6uYyQbPPadSqv8tIs8JdC41cAm6fDzb5t3VXFFtDlDL8iAE6NqdVL4B3_huj49YCZiS1eclhJ20DUYu_TJHJwJ5EhexrHfeheH4wa62fgsVq6r3uCkNT7fhk4sDaj5b_ERok9pFdptyLY4RlYvFpYfsBXdYVbvxh9Vm00]--></g></svg>

<svg xmlns="http://www.w3.org/2000/svg" width="441" height="1114" viewBox="0 0 441 1114"><rect width="427" height="100.383" x="7" y="660.14" fill="#3D176E" rx="2.5" ry="2.5" style="stroke:#000d19;stroke-width:.5"/><circle cx="127.25" cy="680.034" r="11" fill="#ADD1B2" style="stroke:#181818;stroke-width:1"/><path d="M130.219 685.675q-.578.297-1.219.438-.64.156-1.344.156-2.5 0-3.828-1.64-1.312-1.657-1.312-4.782t1.312-4.781q1.328-1.657 3.828-1.657.703 0 1.344.157.656.156 1.219.453v2.719q-.625-.579-1.219-.844-.594-.281-1.219-.281-1.344 0-2.031 1.078-.687 1.062-.687 3.156t.687 3.172q.688 1.062 2.031 1.062.625 0 1.219-.265.594-.282 1.219-.86z"/><text x="152.75" y="685.92" fill="#D9B8FF" font-family="Helvetica" font-size="17" textLength="168">azure_storage_table</text><path d="M8 699.929h425" style="stroke:#000d19;stroke-width:.5"/><text x="18" y="721.924" fill="#D9B8FF" font-family="sans-serif" font-size="14" font-weight="bold" textLength="89">table_name</text><text x="107" y="721.924" fill="#D9B8FF" font-family="sans-serif" font-size="14" textLength="48">: string</text><text x="18" y="748.221" fill="#D9B8FF" font-family="sans-serif" font-size="14" font-weight="bold" textLength="186">table_signed_identifiers</text><text x="204" y="748.221" fill="#D9B8FF" font-family="sans-serif" font-size="14" textLength="219">: azure_table_signed_identifier[]</text><rect width="257" height="126.68" x="92" y="980.91" fill="#3D176E" rx="2.5" ry="2.5" style="stroke:#000d19;stroke-width:.5"/><circle cx="107" cy="1000.804" r="11" fill="#ADD1B2" style="stroke:#181818;stroke-width:1"/><path d="M109.969 1006.445q-.578.297-1.219.438-.64.156-1.344.156-2.5 0-3.828-1.64-1.312-1.657-1.312-4.782t1.312-4.781q1.328-1.657 3.828-1.657.703 0 1.344.157.656.156 1.219.453v2.719q-.625-.579-1.219-.844-.594-.281-1.219-.281-1.344 0-2.031 1.078-.687 1.062-.687 3.156t.687 3.172q.688 1.062 2.031 1.062.625 0 1.219-.265.594-.282 1.219-.86z"/><text x="126" y="1006.69" fill="#D9B8FF" font-family="Helvetica" font-size="17" textLength="215">azure_table_access_policy</text><path d="M93 1020.699h255" style="stroke:#000d19;stroke-width:.5"/><text x="103" y="1042.694" fill="#D9B8FF" font-family="sans-serif" font-size="14" font-weight="bold" textLength="90">expiry_time</text><text x="193" y="1042.694" fill="#D9B8FF" font-family="sans-serif" font-size="14" textLength="70">: datetime</text><text x="103" y="1068.991" fill="#D9B8FF" font-family="sans-serif" font-size="14" font-weight="bold" textLength="87">permission</text><text x="190" y="1068.991" fill="#D9B8FF" font-family="sans-serif" font-size="14" textLength="48">: string</text><text x="103" y="1095.288" fill="#D9B8FF" font-family="sans-serif" font-size="14" font-weight="bold" textLength="78">start_time</text><text x="181" y="1095.288" fill="#D9B8FF" font-family="sans-serif" font-size="14" textLength="70">: datetime</text><rect width="321" height="100.383" x="60" y="820.53" fill="#3D176E" rx="2.5" ry="2.5" style="stroke:#000d19;stroke-width:.5"/><circle cx="90.3" cy="840.424" r="11" fill="#ADD1B2" style="stroke:#181818;stroke-width:1"/><path d="M93.269 846.065q-.578.297-1.219.438-.64.156-1.344.156-2.5 0-3.828-1.64-1.312-1.657-1.312-4.782t1.312-4.781q1.328-1.657 3.828-1.657.703 0 1.344.157.656.156 1.219.453v2.719q-.625-.579-1.219-.844-.594-.281-1.219-.281-1.344 0-2.031 1.078-.687 1.062-.687 3.156t.687 3.172q.688 1.062 2.031 1.062.625 0 1.219-.265.594-.282 1.219-.86z"/><text x="112.7" y="846.31" fill="#D9B8FF" font-family="Helvetica" font-size="17" textLength="245">azure_table_signed_identifier</text><path d="M61 860.319h319" style="stroke:#000d19;stroke-width:.5"/><text x="71" y="882.314" fill="#D9B8FF" font-family="sans-serif" font-size="14" font-weight="bold" textLength="108">access_policy</text><text x="179" y="882.314" fill="#D9B8FF" font-family="sans-serif" font-size="14" textLength="191">: azure_table_access_policy</text><text x="71" y="908.611" fill="#D9B8FF" font-family="sans-serif" font-size="14" font-weight="bold" textLength="14">id</text><text x="85" y="908.611" fill="#D9B8FF" font-family="sans-serif" font-size="14" textLength="48">: string</text><rect width="214" height="100.383" x="113.5" y="438.76" fill="#3D176E" rx="2.5" ry="2.5" style="stroke:#000d19;stroke-width:.5"/><circle cx="134.8" cy="458.654" r="11" fill="#ADD1B2" style="stroke:#181818;stroke-width:1"/><path d="M137.769 464.295q-.578.297-1.219.438-.64.156-1.344.156-2.5 0-3.828-1.64-1.312-1.657-1.312-4.782t1.312-4.781q1.328-1.656 3.828-1.656.703 0 1.344.156.656.156 1.219.453v2.719q-.625-.579-1.219-.844-.594-.281-1.219-.281-1.343 0-2.031 1.078-.687 1.062-.687 3.156t.687 3.172q.688 1.062 2.031 1.062.625 0 1.219-.265.594-.281 1.219-.86z"/><text x="155.2" y="464.54" fill="#D9B8FF" font-family="Helvetica" font-size="17" textLength="158">microsoft_resource</text><path d="M114.5 478.549h212" style="stroke:#000d19;stroke-width:.5"/><text x="124.5" y="500.544" fill="#D9B8FF" font-family="sans-serif" font-size="14" font-weight="bold" textLength="35">etag</text><text x="159.5" y="500.544" fill="#D9B8FF" font-family="sans-serif" font-size="14" textLength="48">: string</text><text x="124.5" y="526.841" fill="#D9B8FF" font-family="sans-serif" font-size="14" font-weight="bold" textLength="144">provisioning_state</text><text x="268.5" y="526.841" fill="#D9B8FF" font-family="sans-serif" font-size="14" textLength="48">: string</text><rect width="227" height="310.758" x="107" y="7" fill="#3D176E" rx="2.5" ry="2.5" style="stroke:#000d19;stroke-width:.5"/><circle cx="175.75" cy="26.895" r="11" fill="#ADD1B2" style="stroke:#181818;stroke-width:1"/><path d="M178.719 32.535q-.578.297-1.219.438-.64.156-1.344.156-2.5 0-3.828-1.64-1.312-1.657-1.312-4.782t1.312-4.781q1.328-1.656 3.828-1.656.703 0 1.344.156.656.156 1.219.453v2.719q-.625-.578-1.219-.844-.594-.281-1.219-.281-1.344 0-2.031 1.078-.687 1.062-.687 3.156t.687 3.172q.688 1.062 2.031 1.062.625 0 1.219-.265.594-.281 1.219-.86z"/><text x="201.25" y="32.78" fill="#D9B8FF" font-family="Helvetica" font-size="17" textLength="71">resource</text><path d="M108 46.789h225" style="stroke:#000d19;stroke-width:.5"/><text x="118" y="68.784" fill="#D9B8FF" font-family="sans-serif" font-size="14" font-weight="bold" textLength="29">age</text><text x="147" y="68.784" fill="#D9B8FF" font-family="sans-serif" font-size="14" textLength="66">: duration</text><text x="118" y="95.081" fill="#D9B8FF" font-family="sans-serif" font-size="14" font-weight="bold" textLength="43">atime</text><text x="161" y="95.081" fill="#D9B8FF" font-family="sans-serif" font-size="14" textLength="70">: datetime</text><text x="118" y="121.378" fill="#D9B8FF" font-family="sans-serif" font-size="14" font-weight="bold" textLength="43">ctime</text><text x="161" y="121.378" fill="#D9B8FF" font-family="sans-serif" font-size="14" textLength="70">: datetime</text><text x="118" y="147.675" fill="#D9B8FF" font-family="sans-serif" font-size="14" font-weight="bold" textLength="14">id</text><text x="132" y="147.675" fill="#D9B8FF" font-family="sans-serif" font-size="14" textLength="48">: string</text><text x="118" y="173.972" fill="#D9B8FF" font-family="sans-serif" font-size="14" font-weight="bold" textLength="33">kind</text><text x="151" y="173.972" fill="#D9B8FF" font-family="sans-serif" font-size="14" textLength="48">: string</text><text x="118" y="200.269" fill="#D9B8FF" font-family="sans-serif" font-size="14" font-weight="bold" textLength="90">last_access</text><text x="208" y="200.269" fill="#D9B8FF" font-family="sans-serif" font-size="14" textLength="66">: duration</text><text x="118" y="226.565" fill="#D9B8FF" font-family="sans-serif" font-size="14" font-weight="bold" textLength="90">last_update</text><text x="208" y="226.565" fill="#D9B8FF" font-family="sans-serif" font-size="14" textLength="66">: duration</text><text x="118" y="252.862" fill="#D9B8FF" font-family="sans-serif" font-size="14" font-weight="bold" textLength="48">mtime</text><text x="166" y="252.862" fill="#D9B8FF" font-family="sans-serif" font-size="14" textLength="70">: datetime</text><text x="118" y="279.159" fill="#D9B8FF" font-family="sans-serif" font-size="14" font-weight="bold" textLength="43">name</text><text x="161" y="279.159" fill="#D9B8FF" font-family="sans-serif" font-size="14" textLength="48">: string</text><text x="118" y="305.456" fill="#D9B8FF" font-family="sans-serif" font-size="14" font-weight="bold" textLength="34">tags</text><text x="152" y="305.456" fill="#D9B8FF" font-family="sans-serif" font-size="14" textLength="171">: dictionary[string, string]</text><path fill="none" d="M220.5 761.01v53.21" style="stroke:#ffaf37;stroke-width:2"/><path fill="#FFAF37" d="m220.5 820.22 4-9-4 4-4-4z" style="stroke:#ffaf37;stroke-width:2"/><path fill="none" d="M220.5 557.46v102.55m0-120.55-6 18h12zm0 381.87v53.28" style="stroke:#ffaf37;stroke-width:2"/><path fill="#FFAF37" d="m220.5 980.61 4-9-4 4-4-4z" style="stroke:#ffaf37;stroke-width:2"/><path fill="none" d="M220.5 336.06v102.37m0-120.37-6 18h12z" style="stroke:#ffaf37;stroke-width:2"/></svg>
